X:4032
T:Hewlett
M:3/4
L:1/8
C:Turlough O'Carolan
K:D
|: AF | D2 D2 FG | AB c2 A2 | d2 f2 fg | fe d3 B |
| A2 F2 F2 | G3 A BG | AF D2 D2 | D4 :| 
|: AB | A2 D2 AB | A2 D2 AB | A2 d2 d2 | dc BA GF |
| G2 G,2 GA | G2 G,2 GA | G2 GA BG | AF D2 D2 |
| FE F2 G2 |  AB c2 A2 | fe fg ag | fe d3 B |
| A2 F2 F2 | G3 A BG | AF D2 D2 | D4 |]
